picto/tracks-6-fr-large.svg

<svg class="color-immutable" width="24" height="24" viewBox="0 0 24 24" fill="none" xmlns="http://www.w3.org/2000/svg"><path d="M0 22.5V1.5C0 0.675 0.675 0 1.5 0H22.5C23.325 0 24 0.675 24 1.5V22.5C24 23.325 23.325 24 22.5 24H1.5C0.675 24 0 23.325 0 22.5Z" fill="#2D327D"/><path d="M16.628 10.876H14.062C13.822 9.836 13.231 9.316 12.29 9.316C11.293 9.316 10.586 9.928 10.167 11.152C9.995 11.65 9.856 12.404 9.752 13.413C10.158 12.866 10.59 12.472 11.049 12.232C11.507 11.992 12.059 11.872 12.705 11.872C13.972 11.872 14.991 12.321 15.76 13.219C16.492 14.068 16.858 15.132 16.858 16.412C16.858 17.932 16.366 19.153 15.381 20.076C14.495 20.907 13.431 21.322 12.188 21.322C10.595 21.322 9.355 20.721 8.469 19.518C7.583 18.315 7.14 16.637 7.14 14.484C7.14 12.183 7.614 10.38 8.561 9.076C9.478 7.815 10.73 7.184 12.317 7.184C13.812 7.184 14.956 7.685 15.75 8.688C16.207 9.268 16.499 9.997 16.628 10.876ZM12.06 13.968C11.414 13.968 10.9 14.239 10.519 14.78C10.174 15.26 10.002 15.832 10.002 16.497C10.002 17.155 10.177 17.731 10.528 18.223C10.909 18.771 11.432 19.044 12.097 19.044C12.743 19.044 13.263 18.783 13.657 18.26C14.026 17.768 14.211 17.186 14.211 16.516C14.211 15.858 14.045 15.295 13.713 14.827C13.306 14.254 12.755 13.968 12.06 13.968Z" fill="white"/><path d="M5.036 3L4.288 5.249H3.73L2.993 3H3.507L4.013 4.684L4.527 3H5.036Z" fill="white"/><path d="M5.87399 3.523C6.11799 3.523 6.31699 3.604 6.47199 3.766C6.62499 3.926 6.70099 4.139 6.70099 4.406C6.70099 4.682 6.61899 4.902 6.45599 5.066C6.30399 5.218 6.10499 5.295 5.85999 5.295C5.59899 5.295 5.38999 5.21 5.23599 5.04C5.08799 4.877 5.01399 4.667 5.01399 4.409C5.01399 4.155 5.08599 3.948 5.22899 3.789C5.38899 3.612 5.60299 3.523 5.87399 3.523ZM5.85099 3.871C5.73299 3.871 5.63899 3.919 5.56999 4.014C5.49899 4.11 5.46299 4.242 5.46299 4.409C5.46299 4.582 5.49799 4.715 5.56799 4.807C5.63999 4.9 5.73799 4.947 5.86199 4.947C5.97799 4.947 6.06999 4.904 6.13699 4.819C6.21399 4.725 6.25199 4.588 6.25199 4.408C6.25199 4.24 6.21799 4.109 6.14999 4.016C6.07999 3.919 5.97999 3.871 5.85099 3.871Z" fill="white"/><path d="M7.44899 3V3.401H7.00299V3H7.44899ZM7.44899 3.572V5.249H7.00299V3.572H7.44899Z" fill="white"/><path d="M9.32099 4.726C9.29699 4.82 9.25499 4.909 9.19299 4.992C9.04499 5.194 8.83299 5.295 8.55599 5.295C8.30599 5.295 8.10499 5.216 7.95499 5.058C7.88099 4.981 7.82499 4.888 7.78599 4.78C7.74399 4.664 7.72299 4.543 7.72299 4.417C7.72299 4.173 7.79299 3.968 7.93399 3.802C8.09099 3.616 8.29399 3.524 8.54299 3.524C8.74399 3.524 8.91499 3.586 9.05699 3.71C9.15899 3.799 9.23199 3.909 9.27799 4.04C9.32399 4.171 9.34699 4.335 9.34699 4.533H8.17699C8.18099 4.615 8.19399 4.683 8.21499 4.738C8.27499 4.885 8.38999 4.958 8.55999 4.958C8.64299 4.958 8.71099 4.94 8.76299 4.903C8.81499 4.867 8.85799 4.808 8.89199 4.727H9.32099V4.726ZM8.89199 4.232C8.88399 4.151 8.86499 4.084 8.83599 4.031C8.80799 3.978 8.76699 3.937 8.71399 3.906C8.66099 3.875 8.60399 3.86 8.54099 3.86C8.44199 3.86 8.35999 3.893 8.29499 3.96C8.22999 4.026 8.19199 4.117 8.17999 4.232H8.89199Z" fill="white"/></svg>

<svg class="color-immutable" width="24" height="24" viewBox="0 0 24 24" fill="none" xmlns="http://www.w3.org/2000/svg"><g clip-path="url(#a)"><path d="M0 22.5v-21C0 .675.675 0 1.5 0h21c.825 0 1.5.675 1.5 1.5v21c0 .825-.675 1.5-1.5 1.5h-21C.675 24 0 23.325 0 22.5Z" fill="#2D327D"/><path d="M16.628 10.876h-2.566c-.24-1.04-.831-1.56-1.772-1.56-.997 0-1.704.612-2.123 1.836-.172.498-.311 1.252-.415 2.261.406-.547.838-.941 1.297-1.181.458-.24 1.01-.36 1.656-.36 1.267 0 2.286.449 3.055 1.347.732.849 1.098 1.913 1.098 3.193 0 1.52-.492 2.741-1.477 3.664-.886.831-1.95 1.246-3.193 1.246-1.593 0-2.833-.601-3.719-1.804-.886-1.203-1.329-2.881-1.329-5.034 0-2.301.474-4.104 1.421-5.408.917-1.261 2.169-1.892 3.756-1.892 1.495 0 2.639.501 3.433 1.504.457.58.749 1.309.878 2.188Zm-4.568 3.092c-.646 0-1.16.271-1.541.812-.345.48-.517 1.052-.517 1.717 0 .658.175 1.234.526 1.726.381.548.904.821 1.569.821.646 0 1.166-.261 1.56-.784.369-.492.554-1.074.554-1.744 0-.658-.166-1.221-.498-1.689-.407-.573-.958-.859-1.653-.859ZM5.036 3l-.748 2.249H3.73L2.993 3h.514l.506 1.684L4.527 3h.509ZM5.874 3.523a.79.79 0 0 1 .598.243c.153.16.229.373.229.64 0 .276-.082.496-.245.66a.807.807 0 0 1-.596.229c-.261 0-.47-.085-.624-.255-.148-.163-.222-.373-.222-.631 0-.254.072-.461.215-.62.16-.177.374-.266.645-.266Zm-.023.348a.33.33 0 0 0-.281.143.652.652 0 0 0-.107.395c0 .173.035.306.105.398.072.093.17.14.294.14a.332.332 0 0 0 .275-.128c.077-.094.115-.231.115-.411 0-.168-.034-.299-.102-.392a.347.347 0 0 0-.299-.145ZM7.449 3v.401h-.446V3h.446Zm0 .572v1.677h-.446V3.572h.446ZM9.321 4.726a.752.752 0 0 1-.128.266c-.148.202-.36.303-.637.303-.25 0-.451-.079-.601-.237a.775.775 0 0 1-.169-.278 1.058 1.058 0 0 1-.063-.363c0-.244.07-.449.211-.615a.76.76 0 0 1 .609-.278.754.754 0 0 1 .735.516c.046.131.069.295.069.493h-1.17c.004.082.017.15.038.205.06.147.175.22.345.22a.343.343 0 0 0 .203-.055.39.39 0 0 0 .129-.176h.429v-.001Zm-.429-.494a.525.525 0 0 0-.056-.201.334.334 0 0 0-.295-.171.328.328 0 0 0-.246.1.44.44 0 0 0-.115.272h.712Z" fill="#fff"/></g><defs><clipPath id="a"><path fill="#fff" d="M0 0h24v24H0z"/></clipPath></defs></svg>
